src/static/ubi-banca.svg

<svg width="231" height="36" viewBox="0 0 231 36" fill="none" xmlns="http://www.w3.org/2000/svg">
<g clip-path="url(#clip0)">
<path d="M74.1549 23.919L86.627 18.5293L68.8673 10.7512V0.977994L97.8187 13.7314L97.8196 23.3272L69.4793 35.5995C69.4793 35.5995 67.4277 26.901 74.1549 23.919Z" fill="black"/>
<path d="M100.086 22.7532L100.086 17.9209L100.091 13.1595L129.295 0.40271C129.295 0.40271 131.345 9.10346 124.618 12.0862L111.2 17.921L129.245 25.8252V35.5999L100.086 22.7532Z" fill="black"/>
<path fill-rule="evenodd" clip-rule="evenodd" d="M135.332 29.7175L135.33 3.91276H141.144C146.658 3.91276 150.913 5.35066 151.003 11.1752C151.042 13.7103 149.914 15.7144 148.508 16.9007C151.962 18.456 154.412 20.6151 154.412 25.6723C154.412 27.1685 154.157 28.5243 153.699 29.7175C153.699 29.717 153.699 29.718 153.699 29.7175L148.339 29.7144C149.201 28.7768 149.785 27.5284 149.785 26.0322C149.785 20.3374 146.059 19.4811 142.46 19.4811H139.664V29.7175H135.332ZM141.302 7.83054C143.804 7.83054 147.065 7.90497 146.888 11.8074C146.702 15.8664 143.839 15.9815 142.588 15.9815H139.664L139.663 7.82747L141.302 7.83054Z" fill="black"/>
<path d="M135.332 29.7175H139.664V31.6556H144.163C145.564 31.6556 147.196 30.9559 148.339 29.7144L153.699 29.7175C152.317 33.3113 149.087 35.4154 145.434 35.4154H135.333L135.332 29.7175Z" fill="black"/>
<path fill-rule="evenodd" clip-rule="evenodd" d="M155.759 29.7175C155.759 29.7177 155.759 29.7172 155.759 29.7175C156.056 33.7721 159.29 35.7415 164.332 35.8274C166.021 35.8558 167.85 35.4353 169.338 34.5982C170.227 35.4683 170.652 35.4618 171.946 35.4422C172.162 35.439 172.402 35.4353 172.672 35.4353L172.674 29.7182V19.2693C172.674 14.4722 169.896 12.0844 164.728 12.0844C162.428 12.0844 159.519 12.8609 157.39 13.9121C157.39 13.9121 157.816 14.7461 158.175 15.2103C159.24 16.5903 160.244 16.3396 161.709 15.974C162.478 15.7822 163.373 15.5588 164.47 15.5226C166.337 15.462 168.723 15.9799 168.723 18.6286C168.723 19.069 168.767 20.9765 168.767 20.9765C159.702 20.9765 155.736 23.8891 155.736 29.0921C155.736 29.3062 155.744 29.5134 155.759 29.7175ZM168.767 29.7175V24.3464C168.457 24.3464 168.248 24.3387 168.052 24.3315C167.648 24.3165 167.3 24.3036 166.229 24.3656C162.754 24.3656 160.078 26.2133 160.078 28.7722C160.078 29.1067 160.113 29.4221 160.18 29.7175C160.588 31.529 162.197 32.6109 164.415 32.6447C165.978 32.6685 167.398 32.4306 168.767 32.0224V29.7175Z" fill="black"/>
<path fill-rule="evenodd" clip-rule="evenodd" d="M179.271 35.4177V18.2895C179.267 17.9342 179.237 17.7731 179.237 17.7731C180.761 16.6713 182.613 15.6415 184.349 15.6415C187.43 15.6415 189.253 17.3772 189.253 20.7118V29.7175L189.252 35.4174H193.158V29.7182L193.159 19.9353C193.159 14.4415 189.181 11.9478 184.657 12.1036C182.811 12.1688 180.694 12.6775 178.885 14.2996C178.762 13.9681 178.658 13.7671 178.658 13.7671C178.658 13.7671 177.741 11.5864 175.362 12.6545L175.365 35.4177H179.271Z" fill="black"/>
<path d="M201.288 29.7221L196.325 29.7175C198.203 33.6322 202.081 35.8228 206.483 35.8228C208.651 35.8228 210.775 35.3202 212.683 34.4087L211.556 31.2152C210.299 31.7163 208.608 32.3101 206.7 32.3101C204.582 32.3101 202.629 31.3925 201.288 29.7221Z" fill="black"/>
<path d="M213.555 29.7175C213.555 29.7177 213.555 29.7172 213.555 29.7175C213.54 29.5134 213.533 29.3062 213.533 29.0921C213.533 23.8891 217.499 20.9765 226.564 20.9765C226.564 20.9765 226.519 19.069 226.519 18.6286C226.519 15.9799 224.133 15.462 222.267 15.5226C221.17 15.5588 220.274 15.7822 219.506 15.974C218.04 16.3396 217.036 16.5903 215.971 15.2103C215.612 14.7461 215.187 13.9121 215.187 13.9121C217.315 12.8609 220.224 12.0844 222.525 12.0844C227.692 12.0844 230.47 14.4722 230.47 19.2693V29.7175H226.563V24.3464C226.253 24.3464 226.044 24.3387 225.849 24.3315C225.444 24.3165 225.096 24.3036 224.026 24.3656C220.55 24.3656 217.875 26.2133 217.875 28.7722C217.875 29.1067 217.909 29.4221 217.976 29.7175H213.555Z" fill="black"/>
<path d="M226.563 29.7175H230.47L230.469 35.4353C230.198 35.4353 229.958 35.439 229.743 35.4422C228.448 35.4618 228.024 35.4683 227.135 34.5982C225.646 35.4353 223.816 35.8558 222.129 35.8274C217.086 35.7415 213.853 33.7721 213.555 29.7175H217.976C218.384 31.529 219.992 32.6109 222.211 32.6447C223.773 32.6685 225.195 32.4306 226.563 32.0224V29.7175Z" fill="black"/>
<path d="M196.325 29.7175H201.288C200.157 28.3156 199.459 26.3736 199.459 23.9966C199.459 19.7987 201.584 15.6515 206.223 15.6577C207.308 15.659 208.153 15.8122 208.856 15.9395C210.192 16.1818 211.012 16.3304 211.989 15.1605C212.594 14.4361 212.683 13.5584 212.683 13.5584C210.602 12.6468 208.26 12.099 206.006 12.099C199.416 12.099 195.124 17.061 195.124 24.0871C195.124 26.2301 195.557 28.1184 196.325 29.7175Z" fill="black"/>
<path d="M0.970215 24.4309C0.970215 33.6 4.39166 35.7131 12.514 35.9901C12.8736 36.0023 13.2132 36.0031 13.5478 35.9931C21.7267 35.7269 25.1704 33.6284 25.1704 24.4309L25.1697 3.95342H18.2974L18.2831 23.5377C18.2831 28.6325 17.3138 29.6392 13.3966 29.9154C13.0674 29.9388 13.0637 29.9385 12.7568 29.9166C12.7411 29.9155 12.7247 29.9144 12.7074 29.9131C8.82035 29.6323 7.85681 28.6179 7.85681 23.5377L7.8432 3.95342H0.970215V24.4309Z" fill="black"/>
<path fill-rule="evenodd" clip-rule="evenodd" d="M28.7251 35.4599H40.8714C46.0329 35.4599 50.7825 31.1968 50.6787 25.4437C50.6335 20.8737 48.0338 19.1089 45.52 17.8329C46.6855 16.5868 47.7615 14.575 47.6355 11.8772C47.6355 5.73814 42.0935 3.95342 36.5738 3.95342H28.7251V35.4599ZM35.5536 16.8615V9.2554L37.1863 9.25616C40.3928 9.25616 41.8614 10.9319 41.8614 13.0957C41.8614 15.6538 40.3663 16.8615 38.1305 16.8615H35.5536ZM35.5572 30.2722L35.5121 21.2673H38.2415C42.2626 21.2673 44.0084 23.494 44.0084 25.5603C44.0084 28.72 41.9137 30.2722 38.829 30.2722H35.5572Z" fill="black"/>
<path d="M53.7347 8.58018L53.7247 35.4959H60.6034L60.6077 3.27279C60.6077 3.27279 59.463 3.26823 58.9027 3.3465C58.364 3.42323 57.6319 3.57438 56.889 3.88667C55.3925 4.51661 53.7347 5.86935 53.7347 8.58018Z" fill="black"/>
</g>
<defs>
<clipPath id="clip0">
<path d="M0.970215 0H230.47V36H0.970215V0Z" fill="white"/>
</clipPath>
</defs>
</svg>

<svg xmlns="http://www.w3.org/2000/svg" viewBox="0 0 231 36">
    <path d="M74.155 23.919l12.472-5.39-17.76-7.778V.978L97.82 13.731v9.596L69.48 35.6s-2.051-8.698 4.676-11.68zM100.086 22.753v-4.832l.005-4.761L129.295.402s2.05 8.7-4.677 11.683L111.2 17.921l18.045 7.904V35.6l-29.159-12.847z"/>
    <path fill-rule="evenodd" d="M135.332 29.718l-.002-25.805h5.814c5.514 0 9.769 1.438 9.859 7.262.039 2.535-1.089 4.54-2.495 5.726 3.454 1.555 5.904 3.714 5.904 8.771 0 1.497-.255 2.852-.713 4.046 0-.001 0 0 0 0l-5.36-.004a5.364 5.364 0 001.446-3.682c0-5.695-3.726-6.55-7.325-6.55h-2.796v10.236h-4.332zm5.97-21.887c2.502 0 5.763.074 5.586 3.976-.186 4.06-3.049 4.175-4.3 4.175h-2.924l-.001-8.155 1.639.004z" clip-rule="evenodd"/>
    <path d="M135.332 29.718h4.332v1.938h4.499c1.401 0 3.033-.7 4.176-1.942l5.36.004c-1.382 3.593-4.612 5.697-8.265 5.697h-10.101l-.001-5.697z"/>
    <path fill-rule="evenodd" d="M155.759 29.718c.297 4.054 3.531 6.024 8.573 6.11 1.689.028 3.518-.393 5.006-1.23.889.87 1.314.864 2.608.844.216-.003.456-.007.726-.007l.002-5.717V19.27c0-4.797-2.778-7.185-7.946-7.185-2.3 0-5.209.777-7.338 1.828 0 0 .426.834.785 1.298 1.065 1.38 2.069 1.13 3.534.764.769-.192 1.664-.415 2.761-.451 1.867-.061 4.253.457 4.253 3.106 0 .44.044 2.348.044 2.348-9.065 0-13.031 2.912-13.031 8.115 0 .214.008.421.023.626zm13.008 0v-5.372c-.31 0-.519-.007-.715-.015-.404-.014-.752-.027-1.823.035-3.475 0-6.151 1.847-6.151 4.406 0 .335.035.65.102.946.408 1.811 2.017 2.893 4.235 2.927a14.234 14.234 0 004.352-.623v-2.304zM179.271 35.418V18.29c-.004-.356-.034-.517-.034-.517 1.524-1.102 3.376-2.131 5.112-2.131 3.081 0 4.904 1.735 4.904 5.07v9.006l-.001 5.7h3.906v-5.7l.001-9.783c0-5.493-3.978-7.987-8.502-7.831-1.846.065-3.963.574-5.772 2.196-.123-.332-.227-.533-.227-.533s-.917-2.18-3.296-1.112l.003 22.763h3.906z" clip-rule="evenodd"/>
    <path d="M201.288 29.722l-4.963-.005c1.878 3.915 5.756 6.106 10.158 6.106 2.168 0 4.292-.503 6.2-1.414l-1.127-3.194c-1.257.501-2.948 1.095-4.856 1.095a6.857 6.857 0 01-5.412-2.588zM213.555 29.718a8.51 8.51 0 01-.022-.626c0-5.203 3.966-8.115 13.031-8.115 0 0-.045-1.908-.045-2.348 0-2.65-2.386-3.167-4.252-3.106-1.097.036-1.993.26-2.761.451-1.466.366-2.47.616-3.535-.764-.359-.464-.784-1.298-.784-1.298 2.128-1.051 5.037-1.828 7.338-1.828 5.167 0 7.945 2.388 7.945 7.185v10.449h-3.907v-5.372c-.31 0-.519-.007-.714-.015-.405-.014-.753-.027-1.823.035-3.476 0-6.151 1.847-6.151 4.406 0 .335.034.65.101.946h-4.421z"/>
    <path d="M226.563 29.718h3.907l-.001 5.717c-.271 0-.511.004-.726.007-1.295.02-1.719.026-2.608-.844-1.489.837-3.319 1.258-5.006 1.23-5.043-.087-8.276-2.056-8.574-6.11h4.421c.408 1.811 2.016 2.893 4.235 2.927a14.234 14.234 0 004.352-.623v-2.304zM196.325 29.718h4.963c-1.131-1.402-1.829-3.344-1.829-5.721 0-4.198 2.125-8.345 6.764-8.34 1.085.002 1.93.155 2.633.283 1.336.242 2.156.39 3.133-.78.605-.724.694-1.602.694-1.602-2.081-.911-4.423-1.459-6.677-1.459-6.59 0-10.882 4.962-10.882 11.988 0 2.143.433 4.031 1.201 5.63zM.97 24.43c0 9.17 3.422 11.283 11.544 11.56.36.012.7.013 1.034.003 8.179-.266 11.622-2.365 11.622-11.562V3.953h-6.873l-.014 19.585c0 5.095-.97 6.101-4.886 6.377-.33.024-.333.024-.64.002l-.05-.004c-3.887-.28-4.85-1.295-4.85-6.375L7.843 3.953H.97v20.478z"/>
    <path fill-rule="evenodd" d="M28.725 35.46h12.146c5.162 0 9.911-4.263 9.808-10.016-.046-4.57-2.645-6.335-5.159-7.611 1.165-1.246 2.241-3.258 2.115-5.956 0-6.139-5.541-7.924-11.061-7.924h-7.849V35.46zm6.829-18.599V9.255l1.632.001c3.207 0 4.675 1.676 4.675 3.84 0 2.558-1.495 3.765-3.73 3.765h-2.577zm.003 13.411l-.045-9.005h2.73c4.02 0 5.766 2.227 5.766 4.293 0 3.16-2.094 4.712-5.179 4.712h-3.272z" clip-rule="evenodd"/>
    <path d="M53.735 8.58l-.01 26.916h6.878l.005-32.223s-1.145-.005-1.705.073a8.26 8.26 0 00-2.014.54c-1.497.63-3.154 1.983-3.154 4.694z"/>
</svg>
